X:377
T: "Trennung"
N: Z1057
O: Europa, Mitteleuropa, Deutschland, Westfalen
R: Romanze, Ballade, Abschieds - Lied
M: 4/4
L: 1/8
K: D
DF | A2A2A2BG | GFFFF2
AF | E3FAGGF | F2E2z2
A2 | B2AAB2cA | d2cBA2z
G | GFF2AGFE | E2D2z2

